app/static/icons/texterra.svg

<svg width="60" height="14" viewBox="0 0 60 14" fill="none" xmlns="http://www.w3.org/2000/svg">
<path fill-rule="evenodd" clip-rule="evenodd" d="M36.2166 0C36.759 0 37.3014 0 37.8438 0C37.3849 1.12656 37.0511 2.33658 36.5504 3.42142C36.008 3.42142 35.5073 3.42142 34.9648 3.42142C35.4238 2.29485 35.7576 1.12656 36.2166 0Z" fill="#9A9A9A"/>
<path fill-rule="evenodd" clip-rule="evenodd" d="M5.67454 13.3929H2.67037V4.3387H0V1.87695H8.72044L8.34492 4.3387H5.67454V13.3929Z" fill="#9A9A9A"/>
<path fill-rule="evenodd" clip-rule="evenodd" d="M29.833 13.3929H26.8288V4.3387H24.1584V1.87695H32.8372L32.5034 4.3387H29.833V13.3929Z" fill="#9A9A9A"/>
<path fill-rule="evenodd" clip-rule="evenodd" d="M43.5185 13.394H40.6395V8.22015C40.6395 6.92669 40.5978 6.13392 40.3892 5.13253L43.0178 4.67356C43.0595 4.84046 43.1847 5.17426 43.1847 5.67495C43.602 5.04908 44.1444 4.63184 44.9371 4.63184C45.1875 4.63184 45.6047 4.67356 46.022 4.88218L45.3544 7.21876C44.9789 7.01014 44.6451 6.96841 44.5199 6.96841C43.9357 6.96841 43.6437 7.30221 43.5185 7.59428V13.394Z" fill="#9A9A9A"/>
<path fill-rule="evenodd" clip-rule="evenodd" d="M15.1881 9.34671C15.1881 9.30499 15.1881 9.26326 15.1881 9.17982C15.1463 7.30221 14.7291 6.42599 14.2284 5.80012C13.8529 5.34115 13.1018 4.63184 11.5163 4.63184C10.7653 4.63184 9.4718 4.75701 8.55386 5.80012C7.76109 6.67634 7.51074 7.88635 7.51074 9.13809C7.51074 9.22154 7.51074 9.30499 7.51074 9.38844C7.55247 10.5567 7.88626 11.8085 8.84593 12.643C9.72215 13.394 10.7653 13.5609 11.5998 13.6026C11.6415 13.6026 11.7249 13.6026 11.7667 13.6026C12.5177 13.6026 13.8112 13.5192 15.2298 12.3926L14.145 10.7236C13.5191 11.2243 12.6846 11.5581 11.9753 11.5998C11.9335 11.5998 11.9335 11.5998 11.8918 11.5998C11.5998 11.5998 11.0573 11.5164 10.7235 10.974C10.5566 10.7236 10.5149 10.3064 10.5149 10.0143H15.2715V9.34671H15.1881ZM10.4315 8.05325C10.4315 7.76118 10.5149 7.21876 10.7653 6.92669C10.9322 6.71807 11.1825 6.67634 11.4329 6.67634C11.6832 6.67634 12.0587 6.75979 12.2256 7.21876C12.3091 7.46911 12.3508 7.8029 12.3508 8.09498V8.17843H10.4315V8.05325Z" fill="#9A9A9A"/>
<path fill-rule="evenodd" clip-rule="evenodd" d="M21.697 9.17955L21.4884 8.84575L24.0336 4.84019H20.6539L20.2783 5.59123C20.1114 5.92503 19.9028 6.5509 19.8611 7.00987C19.7359 6.384 19.4438 5.88331 19.3604 5.71641L18.6928 4.58984L15.6052 5.17399L18.0669 8.97093L17.9 9.17955L15.1045 13.3937H18.6094L19.1101 12.5175C19.3187 12.142 19.4856 11.9334 19.6942 11.1406H19.7359C19.7359 11.2241 19.8194 11.4327 20.1114 12.1003L20.7373 13.4355H24.4091L21.697 9.17955Z" fill="#9A9A9A"/>
<path fill-rule="evenodd" clip-rule="evenodd" d="M39.3463 9.34671C39.3463 9.30499 39.3463 9.26326 39.3463 9.17982C39.3045 7.30221 38.8873 6.42599 38.3866 5.80012C38.0111 5.34115 37.26 4.63184 35.6745 4.63184C34.9235 4.63184 33.63 4.75701 32.7121 5.80012C31.9193 6.67634 31.6689 7.88635 31.6689 9.13809C31.6689 9.22154 31.6689 9.30499 31.6689 9.38844C31.7107 10.5567 32.0445 11.8085 33.0041 12.643C33.8803 13.394 34.9235 13.5609 35.758 13.6026C35.7997 13.6026 35.8831 13.6026 35.9249 13.6026C36.6759 13.6026 37.9694 13.5192 39.388 12.3926L38.3032 10.7236C37.6773 11.2243 36.8428 11.5581 36.1335 11.5998C36.0917 11.5998 36.0918 11.5998 36.05 11.5998C35.758 11.5998 35.2155 11.5164 34.8817 10.974C34.7148 10.7236 34.6731 10.3064 34.6731 10.0143H39.4297V9.34671H39.3463ZM34.5897 8.05325C34.5897 7.76118 34.6731 7.21876 34.9235 6.92669C35.0904 6.71807 35.3407 6.67634 35.5911 6.67634C35.8414 6.67634 36.2169 6.75979 36.3838 7.21876C36.4673 7.46911 36.509 7.8029 36.509 8.09498V8.17843H34.5897V8.05325Z" fill="#9A9A9A"/>
<path fill-rule="evenodd" clip-rule="evenodd" d="M49.6518 13.394H46.7728V8.22015C46.7728 6.92669 46.7311 6.13392 46.5225 5.13253L49.1511 4.67356C49.1928 4.84046 49.318 5.17426 49.318 5.67495C49.7353 5.04908 50.2777 4.63184 51.0704 4.63184C51.3208 4.63184 51.738 4.67356 52.1553 4.88218L51.4877 7.21876C51.1122 7.01014 50.7784 6.96841 50.6532 6.96841C50.0691 6.96841 49.777 7.30221 49.6518 7.59428V13.394Z" fill="#9A9A9A"/>
<path fill-rule="evenodd" clip-rule="evenodd" d="M58.2891 13.7683L58.3308 13.7266H58.1639C58.2474 13.7266 58.2474 13.7266 58.2891 13.7683Z" fill="#9A9A9A"/>
<path fill-rule="evenodd" clip-rule="evenodd" d="M59.875 12.0996C59.4577 11.8075 59.2908 11.3902 59.2908 10.5558C59.2908 10.514 59.2908 10.514 59.2908 10.4723V9.17884V7.50986C59.2908 7.25951 59.2908 6.63364 59.1656 6.17467C59.0405 5.79915 58.7901 5.34018 58.1225 5.00638C57.4132 4.67258 56.6622 4.63086 56.1197 4.63086C55.2018 4.63086 54.5342 4.83948 53.9918 5.00638C53.4911 5.17328 52.8652 5.46535 52.2811 5.84087L53.3242 7.63503C53.4076 7.5933 54.0752 7.05088 54.8263 6.84226C55.1601 6.75881 55.4939 6.71709 55.7442 6.71709C55.9111 6.71709 56.1615 6.71709 56.3284 6.92571C56.3701 6.96744 56.4535 7.09261 56.4535 7.50986V8.05227C56.2866 8.05227 56.1197 8.05227 55.9528 8.05227C55.2018 8.05227 54.2421 8.17745 53.4076 8.67814C53.1573 8.84504 52.9904 9.01194 52.8235 9.17884C52.4063 9.63781 52.1976 10.222 52.1976 10.9313C52.1976 11.724 52.4897 12.4334 52.9487 12.8923C53.3242 13.2678 53.9918 13.6016 55.0349 13.6016C55.7859 13.6016 56.6204 13.4347 57.2463 12.8923C57.4549 13.2678 57.7887 13.4765 58.206 13.6851H58.3729L59.9167 12.183L60.0001 12.0996C59.9167 12.1413 59.9167 12.0996 59.875 12.0996ZM56.4535 11.3485C56.3701 11.432 56.2866 11.4737 56.2032 11.5154C56.078 11.5989 55.9528 11.5989 55.7859 11.5989C55.5773 11.5989 55.2853 11.5154 55.1184 11.2651C55.0349 11.0982 54.9932 10.9313 54.9932 10.7644C54.9932 10.7226 54.9932 10.7226 54.9932 10.6809C54.9932 10.514 55.0766 10.222 55.4104 10.0133C55.619 9.88816 55.8694 9.84643 56.2449 9.80471C56.2866 9.80471 56.3284 9.80471 56.4118 9.80471H56.4953V11.3485H56.4535Z" fill="#9A9A9A"/>
<path opacity="0.5" d="M5.67409 9.17871H2.66992V13.3929H5.67409V9.17871Z" fill="#9A9A9A"/>
<path d="M29.8333 9.17871H26.8291V13.3929H29.8333V9.17871Z" fill="#9A9A9A"/>
<path d="M43.5186 9.17871H40.6396V13.3929H43.5186V9.17871Z" fill="#9A9A9A"/>
<path opacity="0.5" d="M7.46875 9.42906C7.51047 10.5973 7.84427 11.8491 8.80394 12.6836C9.68015 13.4346 10.7233 13.6015 11.5578 13.6432C11.5995 13.6432 11.6829 13.6432 11.7247 13.6432C12.4757 13.6432 13.7692 13.5598 15.1878 12.4332L14.103 10.7642C13.4771 11.2649 12.6426 11.5987 11.9333 11.6405C11.8916 11.6405 11.8916 11.6405 11.8498 11.6405C11.5578 11.6405 11.0153 11.557 10.6815 11.0146C10.5146 10.7642 10.4729 10.347 10.4729 10.0549H15.2295V9.34561C15.2295 9.30388 15.2295 9.26216 15.2295 9.17871H7.46875C7.46875 9.26216 7.46875 9.34561 7.46875 9.42906Z" fill="#9A9A9A"/>
<path d="M31.6272 9.42906C31.6689 10.5973 32.0027 11.8491 32.9624 12.6836C33.8386 13.4346 34.8817 13.6015 35.7162 13.6432C35.7579 13.6432 35.8414 13.6432 35.8831 13.6432C36.6341 13.6432 37.9276 13.5598 39.3462 12.4332L38.2614 10.7642C37.6355 11.2649 36.801 11.5987 36.0917 11.6405C36.05 11.6405 36.05 11.6405 36.0083 11.6405C35.7162 11.6405 35.1738 11.557 34.84 11.0146C34.6731 10.7642 34.6313 10.347 34.6313 10.0549H39.3879V9.34561C39.3879 9.30388 39.3879 9.26216 39.3879 9.17871H31.5854C31.5854 9.26216 31.5855 9.34561 31.6272 9.42906Z" fill="#9A9A9A"/>
<path d="M49.6524 9.17871H46.7734V13.3929H49.6524V9.17871Z" fill="#9A9A9A"/>
<path d="M52.8235 9.17844C52.4063 9.63741 52.1976 10.2216 52.1976 10.9309C52.1976 11.7236 52.4897 12.433 52.9487 12.8919C53.3242 13.2675 53.9918 13.6012 55.0349 13.6012C55.7859 13.6012 56.6204 13.4344 57.2463 12.8919C57.4549 13.2675 57.7887 13.4761 58.206 13.6847H58.3729L59.9167 12.1826L60.0001 12.0992C59.9584 12.0992 59.9584 12.0574 59.9167 12.0574C59.4994 11.7654 59.3325 11.3481 59.3325 10.5136C59.3325 10.4719 59.3325 10.4719 59.3325 10.4302V9.13672L52.8235 9.17844ZM54.9932 10.7223C54.9932 10.5554 55.0766 10.2633 55.4104 10.0547C55.619 9.92949 55.8694 9.88776 56.2449 9.84604C56.2866 9.84604 56.3284 9.84604 56.4118 9.84604H56.4953V11.3481C56.4118 11.4316 56.3284 11.4733 56.2449 11.515C56.1197 11.5985 55.9946 11.5985 55.8277 11.5985C55.619 11.5985 55.327 11.515 55.1601 11.2647C55.0766 11.0978 55.0349 10.9309 55.0349 10.764C54.9932 10.764 54.9932 10.764 54.9932 10.7223Z" fill="#9A9A9A"/>
</svg>

<svg xmlns="http://www.w3.org/2000/svg" xmlns:xlink="http://www.w3.org/1999/xlink" width="60" height="14" fill="none"><g fill-rule="evenodd" fill="#9a9a9a"><path d="M36.217 0h1.627L36.55 3.42h-1.586L36.217 0zM5.675 13.393H2.67V4.34H0V1.877h8.72L8.345 4.34h-2.67v9.054zm24.158 0H26.83V4.34h-2.67V1.877h8.68l-.334 2.462h-2.67v9.054z"/><use xlink:href="#B"/><path d="M15.188 9.347V9.18c-.042-1.878-.46-2.754-.96-3.38-.376-.46-1.127-1.168-2.712-1.168-.75 0-2.044.125-2.962 1.168-.793.876-1.043 2.086-1.043 3.338v.25c.042 1.168.376 2.42 1.335 3.255.876.75 1.92.918 2.754.96h.167c.75 0 2.044-.083 3.463-1.2l-1.085-1.67c-.626.5-1.46.835-2.17.876h-.084c-.292 0-.835-.083-1.168-.626-.167-.25-.2-.668-.2-.96h4.757v-.668h-.083zM10.43 8.054c0-.292.083-.834.334-1.127.167-.2.417-.25.668-.25s.626.083.793.542c.084.25.125.584.125.876v.083h-1.92v-.125zM21.697 9.18l-.2-.334 2.545-4.006h-3.38l-.376.75a4.69 4.69 0 0 0-.417 1.42c-.125-.626-.417-1.127-.5-1.293L18.693 4.6l-3.088.584 2.462 3.797-.167.2-2.795 4.214H18.6l.5-.876c.2-.376.376-.584.584-1.377h.042c0 .084.084.292.375.96l.626 1.335h3.672L21.697 9.18zm17.65.167V9.18c-.042-1.878-.46-2.754-.96-3.38-.376-.46-1.127-1.168-2.712-1.168-.75 0-2.044.125-2.962 1.168-.793.876-1.043 2.086-1.043 3.338v.25c.042 1.168.376 2.42 1.335 3.255.876.75 1.92.918 2.754.96h.167c.75 0 2.044-.083 3.463-1.2l-1.085-1.67c-.626.5-1.46.835-2.17.876h-.084c-.292 0-.834-.083-1.168-.626-.167-.25-.2-.668-.2-.96h4.757v-.668h-.083zM34.6 8.053c0-.292.083-.834.334-1.127.167-.2.417-.25.668-.25s.626.083.793.542c.084.25.125.584.125.876v.083H34.6v-.125z"/><use xlink:href="#B" x="6.132"/><path d="M58.3 13.768l.042-.042h-.167c.084 0 .084 0 .125.042zm1.585-1.668c-.417-.292-.584-.7-.584-1.544V7.5c0-.25 0-.876-.125-1.335-.125-.376-.375-.834-1.043-1.168-.7-.334-1.46-.376-2.003-.376-.918 0-1.586.2-2.128.376-.5.167-1.127.46-1.7.834l1.043 1.794c.083-.042.75-.584 1.502-.793.334-.083.668-.125.918-.125.167 0 .417 0 .584.2.042.042.125.167.125.584v.542h-.5c-.75 0-1.7.125-2.545.626-.25.167-.417.334-.584.5-.417.46-.626 1.043-.626 1.752 0 .793.292 1.502.75 1.96.375.375 1.043.7 2.086.7.75 0 1.585-.167 2.2-.7.2.375.542.584.96.793h.167L60 12.1c-.083.042-.083 0-.125 0zm-3.422-.75c-.083.084-.167.125-.25.167-.125.084-.25.084-.417.084-.2 0-.5-.084-.667-.334a1.11 1.11 0 0 1-.125-.501v-.084c0-.167.083-.46.417-.668.2-.125.46-.167.834-.2h.25v1.544h-.042z"/></g><path opacity=".5" d="M5.674 9.18H2.67v4.214h3.004V9.18z" fill="#9a9a9a"/><path d="M29.833 9.18H26.83v4.214h3.004V9.18zm13.687 0h-2.88v4.214h2.88V9.18z" fill="#9a9a9a"/><path opacity=".5" d="M7.47 9.43c.042 1.168.376 2.42 1.335 3.255.876.75 1.92.918 2.754.96h.167c.75 0 2.044-.083 3.463-1.2l-1.085-1.67c-.626.5-1.46.834-2.17.876h-.083c-.292 0-.835-.083-1.168-.626-.167-.25-.21-.668-.21-.96h4.757V9.18H7.47v.25z" fill="#9a9a9a"/><path d="M31.627 9.43c.042 1.168.375 2.42 1.335 3.255.876.75 1.92.918 2.754.96h.167c.75 0 2.044-.083 3.463-1.2l-1.085-1.67c-.626.5-1.46.834-2.17.876h-.083c-.292 0-.834-.083-1.168-.626-.167-.25-.2-.668-.2-.96h4.757V9.18h-7.803a.53.53 0 0 0 .042.25zm18.025-.25h-2.88v4.214h2.88V9.18zm3.172-.002c-.417.46-.626 1.043-.626 1.752 0 .793.292 1.502.75 1.96.375.376 1.043.7 2.086.7.75 0 1.585-.167 2.2-.7.2.376.542.584.96.793h.167L60 12.1c-.042 0-.042-.042-.083-.042-.417-.292-.584-.7-.584-1.544V9.137l-6.5.042zm2.17 1.544c0-.167.083-.46.417-.668.2-.125.46-.167.834-.2h.25v1.502a.87.87 0 0 1-.25.167c-.125.083-.25.083-.417.083-.2 0-.5-.083-.668-.334a1.11 1.11 0 0 1-.125-.501c-.042 0-.042 0-.042-.042z" fill="#9a9a9a"/><defs ><path id="B" d="M43.52 13.394h-2.88V8.22c0-1.293-.042-2.086-.25-3.088l2.63-.46c.042.167.167.5.167 1 .417-.626.96-1.043 1.752-1.043.25 0 .668.042 1.085.25l-.668 2.337c-.375-.21-.71-.25-.834-.25-.584 0-.876.334-1 .626v5.8z"/></defs></svg>
